build/img/icon/school-icon.svg

<svg width="35" height="40" viewBox="0 0 35 40" fill="none" xmlns="http://www.w3.org/2000/svg">
<path d="M35 2.23547L34.1092 1.99617C29.1782 0.671641 22.7607 0 17.5002 0C12.2395 0 5.8218 0.671719 0.890743 1.99633L0 2.23563L1.25017 26.6639C1.25017 28.2417 1.71752 29.7744 2.60168 31.0963C3.46171 32.382 4.67315 33.4096 6.10477 34.0679L14.6753 38.0085C15.4033 38.3432 16.0802 38.7778 16.6873 39.3002L17.5002 40L18.3131 39.3002C18.9199 38.7778 19.5969 38.3432 20.3251 38.0084L28.8956 34.0679C30.3273 33.4096 31.5386 32.382 32.3987 31.0963C33.2829 29.7744 33.7502 28.2417 33.7502 26.6639L35 2.23547ZM27.844 31.9535L19.2736 35.8941C18.8896 36.0705 18.512 36.2712 18.1513 36.4904L17.5002 36.886L16.8491 36.4905C16.4884 36.2713 16.1108 36.0706 15.7267 35.8941L7.15631 31.9535C7.0905 31.9232 7.02534 31.8919 6.96099 31.8595C5.22289 30.9844 4.02941 29.3418 3.75031 27.4959C3.70896 27.2224 3.68767 26.9445 3.68767 26.6639L2.4375 4.01383L3.37049 3.79742C7.53016 2.83289 13.1136 2.34375 17.5002 2.34375C21.8863 2.34375 27.4695 2.83281 31.6294 3.79727L32.5625 4.01359L31.3127 26.6639C31.3127 26.9445 31.2914 27.2224 31.25 27.4959C30.9606 29.4102 29.6877 31.1058 27.844 31.9535Z" fill="#2E3237"/>
<mask id="mask0" mask-type="alpha" maskUnits="userSpaceOnUse" x="7" y="8" width="21" height="21">
<path d="M18.0069 9.53356C18.0069 14.2495 14.1968 18.0671 9.50345 18.0671C4.8101 18.0671 1 14.2495 1 9.53356C1 4.81762 4.8101 1 9.50345 1C14.1968 1 18.0069 4.81762 18.0069 9.53356Z" transform="matrix(0.919269 0.393631 -0.394792 0.91877 12.5273 6)" fill="#C4C4C4" stroke="black" stroke-width="2"/>
</mask>
<g mask="url(#mask0)">
<path d="M2.9615 0.425245C3.31157 0.171554 3.78503 0.171554 4.1351 0.425244L6.3334 2.01832C6.68479 2.27296 6.83184 2.72517 6.69743 3.13779L5.85879 5.71224C5.72469 6.1239 5.34092 6.40251 4.90797 6.40251H2.18863C1.75568 6.40251 1.3719 6.1239 1.2378 5.71224L0.399167 3.13779C0.264758 2.72517 0.411806 2.27296 0.763191 2.01832L2.9615 0.425245Z" transform="matrix(-0.658237 0.753301 -0.752196 -0.658375 26.2754 9.72955)" stroke="#F24841" stroke-width="1.6"/>
<path d="M2.9615 0.425245C3.31157 0.171554 3.78503 0.171554 4.1351 0.425244L6.3334 2.01832C6.68479 2.27296 6.83184 2.72517 6.69743 3.13779L5.85879 5.71224C5.72469 6.1239 5.34092 6.40251 4.90797 6.40251H2.18863C1.75568 6.40251 1.3719 6.1239 1.2378 5.71224L0.399167 3.13779C0.264758 2.72517 0.411806 2.27296 0.763191 2.01832L2.9615 0.425245Z" transform="matrix(-0.658237 0.753301 -0.752196 -0.658375 14.2783 22.782)" stroke="#F24841" stroke-width="1.6"/>
<path d="M2.9615 0.425245C3.31157 0.171554 3.78503 0.171554 4.1351 0.425244L6.3334 2.01832C6.68479 2.27296 6.83184 2.72517 6.69743 3.13779L5.85879 5.71224C5.72469 6.1239 5.34092 6.40251 4.90797 6.40251H2.18863C1.75568 6.40251 1.3719 6.1239 1.2378 5.71224L0.399167 3.13779C0.264758 2.72517 0.411806 2.27296 0.763191 2.01832L2.9615 0.425245Z" transform="matrix(-0.658237 0.753301 -0.752196 -0.658375 25.0762 27.4057)" stroke="#F24841" stroke-width="1.6"/>
<path d="M2.9615 0.425245C3.31157 0.171554 3.78503 0.171554 4.1351 0.425244L6.3334 2.01832C6.68479 2.27296 6.83184 2.72517 6.69743 3.13779L5.85879 5.71224C5.72469 6.1239 5.34092 6.40251 4.90797 6.40251H2.18863C1.75568 6.40251 1.3719 6.1239 1.2378 5.71224L0.399167 3.13779C0.264758 2.72517 0.411806 2.27296 0.763191 2.01832L2.9615 0.425245Z" transform="matrix(-0.658237 0.753301 -0.752196 -0.658375 15.2461 12.3173)" stroke="#F24841" stroke-width="1.6"/>
<path d="M2.9615 0.425245C3.31157 0.171554 3.78503 0.171554 4.1351 0.425244L6.3334 2.01832C6.68479 2.27296 6.83184 2.72517 6.69743 3.13779L5.85879 5.71224C5.72469 6.1239 5.34092 6.40251 4.90797 6.40251H2.18863C1.75568 6.40251 1.3719 6.1239 1.2378 5.71224L0.399167 3.13779C0.264758 2.72517 0.411806 2.27296 0.763191 2.01832L2.9615 0.425245Z" transform="matrix(-0.658237 0.753301 -0.752196 -0.658375 31.9316 19.4618)" stroke="#F24841" stroke-width="1.6"/>
</g>
<path d="M18.0069 9.53356C18.0069 14.2495 14.1968 18.0671 9.50345 18.0671C4.8101 18.0671 1 14.2495 1 9.53356C1 4.81762 4.8101 1 9.50345 1C14.1968 1 18.0069 4.81762 18.0069 9.53356Z" transform="matrix(0.919269 0.393631 -0.394792 0.91877 12.5273 6)" stroke="#2E3237" stroke-width="2"/>
<path d="M2.94915 0.42929C3.30015 0.173466 3.77615 0.173466 4.12716 0.42929L6.3175 2.02571C6.66687 2.28035 6.81305 2.73068 6.67984 3.14197L5.84192 5.72899C5.70832 6.14146 5.32414 6.42085 4.89058 6.42085H2.18573C1.75216 6.42085 1.36799 6.14146 1.23439 5.72899L0.39647 3.14197C0.263254 2.73068 0.409432 2.28035 0.758811 2.02571L2.94915 0.42929Z" transform="matrix(0.919269 0.393631 -0.394792 0.91877 15.7246 14.0356)" stroke="#F24841" stroke-width="1.6"/>
<path d="M0 0V2.63181" transform="matrix(0.919269 0.393631 -0.394792 0.91877 19.9316 13.4647)" stroke="#F24841" stroke-width="1.6"/>
<path d="M0 0L2.37148 0.526362" transform="matrix(0.919269 0.393631 -0.394792 0.91877 12.9395 15.0516)" stroke="#F24841" stroke-width="1.6"/>
<path d="M0 0L2.14724 0.806443" transform="matrix(-0.844793 -0.535093 -0.536426 0.843948 23.457 19.6339)" stroke="#F24841" stroke-width="1.6"/>
<path d="M0 1.84227L1.84448 0" transform="matrix(0.919269 0.393631 -0.394792 0.91877 12.9727 19.6465)" stroke="#F24841" stroke-width="1.6"/>
<path d="M1.58098 1.57908L0 0" transform="matrix(0.919269 0.393631 -0.394792 0.91877 18.4404 22.2739)" stroke="#F24841" stroke-width="1.6"/>
<path d="M0 5.5L3.93403e-07 0" transform="translate(9 28.5)" stroke="#2E3237" stroke-width="2"/>
<path d="M0 5V0" transform="translate(9 2)" stroke="#2E3237" stroke-width="2"/>
<path d="M0 5V0" transform="translate(26 2)" stroke="#2E3237" stroke-width="2"/>
<path d="M0 5L3.60619e-07 0" transform="translate(26 29)" stroke="#2E3237" stroke-width="2"/>
<path d="M0 6L3.24713e-07 0" transform="translate(17.5 31.5)" stroke="#2E3237" stroke-width="2"/>
<path d="M0 4V0" transform="translate(17.5 2)" stroke="#2E3237" stroke-width="2"/>
</svg>

<svg width="35" height="40" fill="none" xmlns="http://www.w3.org/2000/svg"><path d="M35 2.235l-.89-.239C29.177.672 22.76 0 17.5 0S5.822.672.89 1.996l-.89.24 1.25 24.428a7.95 7.95 0 0 0 1.352 4.432 8.452 8.452 0 0 0 3.503 2.972l8.57 3.94c.728.335 1.405.77 2.012 1.292l.813.7.813-.7a8.57 8.57 0 0 1 2.012-1.292l8.57-3.94a8.452 8.452 0 0 0 3.504-2.972 7.95 7.95 0 0 0 1.351-4.432L35 2.235zm-7.156 29.718l-8.57 3.941c-.384.177-.762.377-1.123.596l-.65.396-.652-.396c-.36-.219-.738-.42-1.122-.596l-8.57-3.94a6.202 6.202 0 0 1-.196-.095c-1.738-.875-2.932-2.517-3.21-4.363a5.564 5.564 0 0 1-.063-.832l-1.25-22.65.932-.217c4.16-.964 9.744-1.453 14.13-1.453 4.386 0 9.97.489 14.13 1.453l.933.217-1.25 22.65c0 .28-.022.558-.063.832-.29 1.914-1.562 3.61-3.406 4.457z" fill="#2E3237"/><mask id="a" maskUnits="userSpaceOnUse" x="7" y="8" width="21" height="21"><path d="M18.007 9.534c0 4.715-3.81 8.533-8.504 8.533C4.81 18.067 1 14.25 1 9.534 1 4.818 4.81 1 9.503 1c4.694 0 8.504 3.818 8.504 8.534z" transform="rotate(23.181 -8.364 33.54) skewX(-.072)" fill="#C4C4C4" stroke="#000" stroke-width="2"/></mask><g mask="url(#a)" stroke="#F24841" stroke-width="1.6"><path d="M2.962.425a1 1 0 0 1 1.173 0l2.198 1.593a1 1 0 0 1 .364 1.12L5.86 5.712a1 1 0 0 1-.951.69h-2.72a1 1 0 0 1-.95-.69l-.84-2.574a1 1 0 0 1 .364-1.12L2.962.425z" transform="matrix(-.65824 .7533 -.7522 -.65838 26.275 9.73)"/><path d="M2.962.425a1 1 0 0 1 1.173 0l2.198 1.593a1 1 0 0 1 .364 1.12L5.86 5.712a1 1 0 0 1-.951.69h-2.72a1 1 0 0 1-.95-.69l-.84-2.574a1 1 0 0 1 .364-1.12L2.962.425z" transform="matrix(-.65824 .7533 -.7522 -.65838 14.278 22.782)"/><path d="M2.962.425a1 1 0 0 1 1.173 0l2.198 1.593a1 1 0 0 1 .364 1.12L5.86 5.712a1 1 0 0 1-.951.69h-2.72a1 1 0 0 1-.95-.69l-.84-2.574a1 1 0 0 1 .364-1.12L2.962.425z" transform="matrix(-.65824 .7533 -.7522 -.65838 25.076 27.406)"/><path d="M2.962.425a1 1 0 0 1 1.173 0l2.198 1.593a1 1 0 0 1 .364 1.12L5.86 5.712a1 1 0 0 1-.951.69h-2.72a1 1 0 0 1-.95-.69l-.84-2.574a1 1 0 0 1 .364-1.12L2.962.425z" transform="matrix(-.65824 .7533 -.7522 -.65838 15.246 12.317)"/><path d="M2.962.425a1 1 0 0 1 1.173 0l2.198 1.593a1 1 0 0 1 .364 1.12L5.86 5.712a1 1 0 0 1-.951.69h-2.72a1 1 0 0 1-.95-.69l-.84-2.574a1 1 0 0 1 .364-1.12L2.962.425z" transform="matrix(-.65824 .7533 -.7522 -.65838 31.932 19.462)"/></g><path d="M18.007 9.534c0 4.715-3.81 8.533-8.504 8.533C4.81 18.067 1 14.25 1 9.534 1 4.818 4.81 1 9.503 1c4.694 0 8.504 3.818 8.504 8.534z" transform="rotate(23.181 -8.364 33.54) skewX(-.072)" stroke="#2E3237" stroke-width="2"/><path d="M2.95.43a1 1 0 0 1 1.177 0l2.19 1.596a1 1 0 0 1 .363 1.116l-.838 2.587a1 1 0 0 1-.951.692H2.186a1 1 0 0 1-.952-.692L.396 3.142A1 1 0 0 1 .76 2.026L2.949.429z" transform="rotate(23.181 -26.355 45.353) skewX(-.072)" stroke="#F24841" stroke-width="1.6"/><path d="M0 0v2.632" transform="rotate(23.181 -22.86 55.324) skewX(-.072)" stroke="#F24841" stroke-width="1.6"/><path d="M0 0l2.371.526" transform="rotate(23.181 -30.225 39.071) skewX(-.072)" stroke="#F24841" stroke-width="1.6"/><path d="M0 0l2.147.806" transform="matrix(-.8448 -.5351 -.53643 .84395 23.457 19.634)" stroke="#F24841" stroke-width="1.6"/><path d="M0 1.842L1.844 0" transform="rotate(23.181 -41.41 41.45) skewX(-.072)" stroke="#F24841" stroke-width="1.6"/><path d="M1.581 1.58L0 0" transform="rotate(23.181 -45.081 56.093) skewX(-.072)" stroke="#F24841" stroke-width="1.6"/><path d="M9 34v-5.5M9 7V2m17 5V2m0 32v-5m-8.5 8.5v-6m0-25.5V2" stroke="#2E3237" stroke-width="2"/></svg>
